src/img/about_star1.svg

<svg width="142" height="150" viewBox="0 0 142 150" fill="none" xmlns="http://www.w3.org/2000/svg">
<g clip-path="url(#clip0_76_128)">
<path d="M141.519 75.0406L73.2319 77.3784L70.4901 149.504L68.2677 77.3592L0 74.4634L68.287 72.1256L71.0288 0L73.2512 72.1448L141.519 75.0406Z" fill="black"/>
<path d="M40.4835 42.9463L70.644 72.8086L101.026 43.1868L72.7605 75.0502L100.795 107.154L70.6344 77.2918L40.2526 106.904L68.5179 75.0406L40.4835 42.9463Z" fill="black"/>
</g>
<defs>
<clipPath id="clip0_76_128">
<rect width="141.519" height="149.504" fill="white"/>
</clipPath>
</defs>
</svg>

<svg width="142" height="150" fill="none" xmlns="http://www.w3.org/2000/svg"><g clip-path="url(#a)" fill="#000"><path d="m141.519 75.04-68.287 2.338-2.742 72.126-2.222-72.145L0 74.463l68.287-2.337L71.029 0l2.222 72.145 68.268 2.896Z"/><path d="M40.483 42.946 70.644 72.81l30.382-29.622L72.76 75.05l28.035 32.104-30.16-29.862-30.382 29.612 28.265-31.863-28.035-32.095Z"/></g><defs><clipPath id="a"><path fill="#fff" d="M0 0h141.519v149.504H0z"/></clipPath></defs></svg>
